flaticon/religion/mosque.svg

<svg xmlns="http://www.w3.org/2000/svg" width="32" height="32" viewBox="0 0 24 24">
    <path d="M 20.796875 12.691406 L 20.796875 9.757812 C 20.945312 9.632812 21.046875 9.476562 21.128906 9.3125 C 21.589844 8.398438 21.242188 7.300781 20.300781 6.707031 C 19.015625 5.894531 18.746094 4.597656 18.703125 4.347656 L 18.652344 3.996094 L 17.96875 3.996094 L 17.914062 4.347656 C 17.871094 4.597656 17.601562 5.894531 16.316406 6.707031 C 15.375 7.300781 15.027344 8.398438 15.488281 9.3125 C 15.601562 9.535156 15.777344 9.710938 16 9.828125 L 16 12.402344 L 14.800781 12.402344 L 14.796875 7.960938 C 15.292969 7.859375 15.554688 7.554688 15.765625 7.132812 C 16.367188 5.9375 15.910156 4.503906 14.675781 3.726562 C 12.839844 2.566406 12.457031 0.710938 12.398438 0.351562 L 12.34375 0 L 11.660156 0 L 11.601562 0.351562 C 11.542969 0.710938 11.160156 2.5625 9.324219 3.722656 C 8.089844 4.503906 7.632812 5.9375 8.234375 7.132812 C 8.421875 7.511719 8.765625 7.777344 9.199219 7.90625 L 9.199219 12.402344 L 8 12.402344 L 8 9.757812 C 8.144531 9.632812 8.246094 9.476562 8.332031 9.3125 C 8.789062 8.398438 8.441406 7.300781 7.5 6.707031 C 6.21875 5.894531 5.949219 4.597656 5.90625 4.347656 L 5.851562 3.996094 L 5.171875 3.996094 L 5.113281 4.347656 C 5.074219 4.597656 4.804688 5.894531 3.519531 6.707031 C 2.578125 7.300781 2.230469 8.398438 2.691406 9.3125 C 2.804688 9.535156 2.980469 9.710938 3.203125 9.828125 L 3.203125 12.691406 C 1.796875 13.269531 0.800781 14.652344 0.800781 16.265625 L 0.800781 24 L 23.199219 24 L 23.199219 16.265625 C 23.199219 14.652344 22.203125 13.269531 20.796875 12.691406 Z M 16.746094 7.382812 C 17.542969 6.878906 18.023438 6.214844 18.308594 5.644531 C 18.59375 6.214844 19.074219 6.878906 19.871094 7.382812 C 20.457031 7.753906 20.683594 8.414062 20.414062 8.953125 C 20.363281 9.054688 20.324219 9.109375 20.28125 9.148438 L 20.238281 9.164062 C 20.195312 9.183594 20.140625 9.203125 20.042969 9.203125 L 16.757812 9.203125 C 16.679688 9.203125 16.597656 9.191406 16.503906 9.164062 L 16.4375 9.144531 C 16.34375 9.109375 16.253906 9.050781 16.203125 8.953125 C 15.933594 8.414062 16.160156 7.753906 16.746094 7.382812 Z M 20 10.003906 L 20 12.402344 L 16.800781 12.402344 L 16.800781 10.003906 Z M 8.949219 6.773438 C 8.535156 5.953125 8.875 4.957031 9.753906 4.402344 C 10.972656 3.628906 11.640625 2.589844 12 1.761719 C 12.359375 2.589844 13.027344 3.628906 14.246094 4.402344 C 15.125 4.957031 15.464844 5.953125 15.050781 6.773438 C 14.921875 7.035156 14.828125 7.148438 14.621094 7.1875 L 14.378906 7.195312 C 14.285156 7.195312 12.90625 7.203125 12 7.203125 L 11.996094 7.203125 C 11.1875 7.203125 10 7.199219 9.707031 7.195312 C 9.445312 7.171875 9.105469 7.082031 8.949219 6.773438 Z M 14 12.402344 L 10 12.402344 L 10 8.003906 L 14 8.003906 Z M 3.945312 7.382812 C 4.746094 6.878906 5.226562 6.214844 5.511719 5.644531 C 5.796875 6.214844 6.273438 6.878906 7.074219 7.382812 C 7.660156 7.753906 7.886719 8.414062 7.617188 8.953125 C 7.566406 9.054688 7.527344 9.109375 7.484375 9.148438 L 7.441406 9.164062 C 7.398438 9.183594 7.34375 9.203125 7.242188 9.203125 L 3.960938 9.203125 C 3.882812 9.203125 3.800781 9.191406 3.707031 9.164062 L 3.640625 9.144531 C 3.542969 9.109375 3.457031 9.050781 3.40625 8.953125 C 3.132812 8.414062 3.363281 7.753906 3.945312 7.382812 Z M 7.199219 10.003906 L 7.199219 12.402344 L 4 12.402344 L 4 10.003906 Z M 12.800781 23.199219 L 11.601562 23.199219 L 11.601562 18.601562 C 11.601562 18.28125 11.878906 18 12.199219 18 C 12.519531 18 12.800781 18.28125 12.800781 18.601562 Z M 14.398438 23.199219 L 13.601562 23.199219 L 13.601562 18.601562 C 13.601562 17.84375 12.957031 17.199219 12.199219 17.199219 C 11.441406 17.199219 10.800781 17.84375 10.800781 18.601562 L 10.800781 23.199219 L 10 23.199219 L 10 17.800781 C 10 16.589844 10.988281 15.601562 12.199219 15.601562 C 13.414062 15.601562 14.398438 16.589844 14.398438 17.800781 Z M 22.398438 23.199219 L 15.199219 23.199219 L 15.199219 17.800781 C 15.199219 16.148438 13.855469 14.800781 12.199219 14.800781 C 10.546875 14.800781 9.199219 16.148438 9.199219 17.800781 L 9.199219 23.199219 L 1.601562 23.199219 L 1.601562 16.265625 C 1.601562 14.574219 2.976562 13.203125 4.664062 13.203125 L 19.335938 13.203125 C 21.023438 13.203125 22.398438 14.578125 22.398438 16.265625 Z M 22.398438 23.199219"/>
    <path d="M11.199219 8.800781C10.980469 8.800781 10.800781 8.980469 10.800781 9.203125L10.800781 11.601562C10.800781 11.824219 10.980469 12.003906 11.199219 12.003906 11.421875 12.003906 11.601562 11.824219 11.601562 11.601562L11.601562 9.203125C11.601562 8.980469 11.421875 8.800781 11.199219 8.800781zM12.800781 12.003906C13.019531 12.003906 13.199219 11.824219 13.199219 11.601562L13.199219 9.203125C13.199219 8.980469 13.019531 8.800781 12.800781 8.800781 12.578125 8.800781 12.398438 8.980469 12.398438 9.203125L12.398438 11.601562C12.398438 11.824219 12.578125 12.003906 12.800781 12.003906zM18.398438 12.003906C18.621094 12.003906 18.800781 11.824219 18.800781 11.601562L18.800781 10.800781C18.800781 10.582031 18.621094 10.402344 18.398438 10.402344 18.179688 10.402344 18 10.582031 18 10.800781L18 11.601562C18 11.824219 18.179688 12.003906 18.398438 12.003906zM5.601562 12.003906C5.820312 12.003906 6 11.824219 6 11.601562L6 10.800781C6 10.582031 5.820312 10.402344 5.601562 10.402344 5.378906 10.402344 5.199219 10.582031 5.199219 10.800781L5.199219 11.601562C5.199219 11.824219 5.378906 12.003906 5.601562 12.003906zM5.199219 14.800781C3.878906 14.800781 2.800781 15.878906 2.800781 17.199219L2.800781 22 7.601562 22 7.601562 17.199219C7.601562 15.878906 6.523438 14.800781 5.199219 14.800781zM4.800781 21.199219L3.601562 21.199219 3.601562 20 4.800781 20zM4.800781 19.199219L3.601562 19.199219 3.601562 18 4.800781 18zM4.800781 17.199219L3.601562 17.199219C3.601562 16.457031 4.113281 15.835938 4.800781 15.65625zM6.800781 21.199219L5.601562 21.199219 5.601562 20 6.800781 20zM6.800781 19.199219L5.601562 19.199219 5.601562 18 6.800781 18zM5.601562 17.199219L5.601562 15.65625C6.289062 15.835938 6.800781 16.457031 6.800781 17.199219zM18.800781 14.800781C17.476562 14.800781 16.398438 15.878906 16.398438 17.199219L16.398438 22 21.199219 22 21.199219 17.199219C21.199219 15.878906 20.121094 14.800781 18.800781 14.800781zM18.398438 21.199219L17.199219 21.199219 17.199219 20 18.398438 20zM18.398438 19.199219L17.199219 19.199219 17.199219 18 18.398438 18zM18.398438 17.199219L17.199219 17.199219C17.199219 16.457031 17.710938 15.835938 18.398438 15.65625zM20.398438 21.199219L19.199219 21.199219 19.199219 20 20.398438 20zM20.398438 19.199219L19.199219 19.199219 19.199219 18 20.398438 18zM19.199219 17.199219L19.199219 15.65625C19.886719 15.835938 20.398438 16.457031 20.398438 17.199219zM19.199219 17.199219"/>
</svg>

<svg xmlns="http://www.w3.org/2000/svg" width="32" height="32" viewBox="0 0 24 24">
    <path d="M20.797 12.691V9.758c.148-.125.25-.281.332-.445.46-.915.113-2.012-.828-2.606-1.285-.812-1.555-2.11-1.598-2.36l-.05-.35h-.684l-.055.35c-.043.25-.312 1.548-1.598 2.36-.941.594-1.289 1.691-.828 2.606.114.222.29.398.512.515v2.574h-1.2l-.003-4.441c.496-.102.758-.406.969-.828.601-1.196.144-2.63-1.09-3.406C12.84 2.567 12.457.71 12.398.352L12.344 0h-.684l-.058.352c-.059.359-.442 2.21-2.278 3.37-1.234.782-1.691 2.216-1.09 3.41.188.38.532.645.965.774v4.496H8V9.758c.145-.125.246-.281.332-.445.457-.915.11-2.012-.832-2.606-1.281-.812-1.55-2.11-1.594-2.36l-.054-.35h-.68l-.059.35a3.573 3.573 0 0 1-1.593 2.36c-.942.594-1.29 1.691-.829 2.606.114.222.29.398.512.515v2.863a3.87 3.87 0 0 0-2.402 3.575V24h22.398v-7.734a3.87 3.87 0 0 0-2.402-3.575zm-4.05-5.308a4.328 4.328 0 0 0 1.562-1.738c.285.57.765 1.234 1.562 1.738.586.37.813 1.031.543 1.57a.633.633 0 0 1-.133.195l-.043.016a.433.433 0 0 1-.195.04h-3.285a.894.894 0 0 1-.254-.04l-.067-.02a.418.418 0 0 1-.234-.19c-.27-.54-.043-1.2.543-1.571zM20 10.003v2.4h-3.2v-2.4zM8.95 6.774c-.415-.82-.075-1.816.804-2.37A5.866 5.866 0 0 0 12 1.761a5.866 5.866 0 0 0 2.246 2.64c.879.555 1.219 1.551.805 2.371-.13.262-.223.375-.43.415l-.242.007c-.094 0-1.473.008-2.379.008h-.004c-.809 0-1.996-.004-2.289-.008-.262-.023-.602-.113-.758-.422zm5.05 5.63h-4v-4.4h4zM3.945 7.382a4.312 4.312 0 0 0 1.567-1.738 4.3 4.3 0 0 0 1.562 1.738c.586.37.813 1.031.543 1.57a.633.633 0 0 1-.133.195l-.043.016a.44.44 0 0 1-.199.04H3.961a.894.894 0 0 1-.254-.04l-.066-.02a.406.406 0 0 1-.235-.19c-.273-.54-.043-1.2.54-1.571zm3.254 2.62v2.4H4v-2.4zM12.801 23.2h-1.2v-4.597c0-.32.278-.602.598-.602.32 0 .602.281.602.602zm1.597 0h-.796v-4.597c0-.758-.645-1.403-1.403-1.403a1.42 1.42 0 0 0-1.398 1.403v4.597H10v-5.398c0-1.211.988-2.2 2.2-2.2 1.214 0 2.198.989 2.198 2.2zm8 0H15.2v-5.398c0-1.653-1.344-3-3-3-1.652 0-3 1.347-3 3v5.398H1.602v-6.933a3.065 3.065 0 0 1 3.062-3.063h14.672a3.067 3.067 0 0 1 3.062 3.063zm0 0"/>
    <path d="M11.2 8.8a.401.401 0 0 0-.4.403v2.399a.401.401 0 1 0 .802 0V9.203a.402.402 0 0 0-.403-.402zm0 0M12.8 12.004c.22 0 .4-.18.4-.402V9.203a.401.401 0 1 0-.802 0v2.399c0 .222.18.402.403.402zm0 0M18.398 12.004c.223 0 .403-.18.403-.402V10.8a.401.401 0 0 0-.801 0v.8c0 .223.18.403.398.403zm0 0M5.602 12.004c.218 0 .398-.18.398-.402V10.8a.4.4 0 0 0-.8 0v.8c0 .223.179.403.402.403zm0 0M5.2 14.8a2.404 2.404 0 0 0-2.4 2.4V22h4.802v-4.8a2.405 2.405 0 0 0-2.403-2.4zm-.4 6.4H3.603V20H4.8zm0-2H3.603V18H4.8zm0-2H3.603A1.6 1.6 0 0 1 4.8 15.655zm2 4H5.603V20H6.8zm0-2H5.603V18H6.8zm-1.198-2v-1.544c.687.18 1.199.801 1.199 1.543zm0 0M18.8 14.8a2.405 2.405 0 0 0-2.402 2.4V22H21.2v-4.8a2.404 2.404 0 0 0-2.398-2.4zm-.402 6.4H17.2V20h1.2zm0-2H17.2V18h1.2zm0-2H17.2a1.6 1.6 0 0 1 1.2-1.544zm2 4H19.2V20h1.2zm0-2H19.2V18h1.2zm-1.199-2v-1.544c.688.18 1.2.801 1.2 1.543zm0 0"/>
</svg>
